static/assets/img/icons/theme/communication/adress-book-1.svg

<svg height="24" viewBox="0 0 24 24" width="24" xmlns="http://www.w3.org/2000/svg"><g fill="none" fill-rule="evenodd"><path d="m0 0h24v24h-24z" opacity="0"/><g fill="#000"><path d="m17 2h2c1.6568542 0 3 1.34314575 3 3v14c0 1.6568542-1.3431458 3-3 3h-2z" opacity=".3"/><path d="m4 2h12c1.6568542 0 3 1.34314575 3 3v14c0 1.6568542-1.3431458 3-3 3h-12c-.55228475 0-1-.4477153-1-1v-18c0-.55228475.44771525-1 1-1zm7.1176481 11.709585c-.4451194.4451193-1.12512863.5554697-1.68816503.2739515-.56303641-.2815182-1.24304568-.1711679-1.68816504.2739514l-1.51100973 1.5110098c-.05488743.0548874-.09624185.1218002-.12078826.1954395-.08732388.2619716.05425611.5451316.31622777.6324555l1.35381943.4512731c1.30008525.4333618 2.73343286.0949943 3.70245916-.874032l3.999217-3.999217c.8902387-.8902387 1.1109394-2.25025726.547903-3.37633007l-.6325712-1.26514237c-.0240338-.04806745-.0556596-.09194593-.0936602-.12994659-.1952622-.19526215-.5118447-.19526215-.7071068 0l-1.592542 1.59254201c-.4451194.44511936-.5554697 1.12512862-.2739515 1.68816502s.1711679 1.2430457-.2739515 1.688165z"/></g></g></svg>

<svg width="24px" height="24px" viewBox="0 0 24 24" version="1.1" xmlns="http://www.w3.org/2000/svg" xmlns:xlink="http://www.w3.org/1999/xlink">
    <title>Icon For Adress-book#1</title>
    <g stroke="none" stroke-width="1" fill="none" fill-rule="evenodd">
        <rect opacity="0" x="0" y="0" width="24" height="24"></rect>
        <path d="M17,2 L19,2 C20.6568542,2 22,3.34314575 22,5 L22,19 C22,20.6568542 20.6568542,22 19,22 L17,22 L17,2 Z" fill="#000000" opacity="0.3"></path>
        <path d="M4,2 L16,2 C17.6568542,2 19,3.34314575 19,5 L19,19 C19,20.6568542 17.6568542,22 16,22 L4,22 C3.44771525,22 3,21.5522847 3,21 L3,3 C3,2.44771525 3.44771525,2 4,2 Z M11.1176481,13.709585 C10.6725287,14.1547043 9.99251947,14.2650547 9.42948307,13.9835365 C8.86644666,13.7020183 8.18643739,13.8123686 7.74131803,14.2574879 L6.2303083,15.7684977 C6.17542087,15.8233851 6.13406645,15.8902979 6.10952004,15.9639372 C6.02219616,16.2259088 6.16377615,16.5090688 6.42574781,16.5963927 L7.77956724,17.0476658 C9.07965249,17.4810276 10.5130001,17.1426601 11.4820264,16.1736338 L15.4812434,12.1744168 C16.3714821,11.2841781 16.5921828,9.92415954 16.0291464,8.79808673 L15.3965752,7.53294436 C15.3725414,7.48487691 15.3409156,7.44099843 15.302915,7.40299777 C15.1076528,7.20773562 14.7910703,7.20773562 14.5958082,7.40299777 L13.0032662,8.99553978 C12.5581468,9.44065914 12.4477965,10.1206684 12.7293147,10.6837048 C13.0108329,11.2467412 12.9004826,11.9267505 12.4553632,12.3718698 L11.1176481,13.709585 Z" fill="#000000"></path>
    </g>
</svg>
